svgs/sharp-light/reply.svg

<svg xmlns="http://www.w3.org/2000/svg" viewBox="0 0 512 512"><!--! Font Awesome Pro 6.6.0 by @fontawesome - https://fontawesome.com License - https://fontawesome.com/license (Commercial License) Copyright 2024 Fonticons, Inc. --><path d="M440.2 446.6C411 469.9 384 480 384 480s20.2-20.2 28.5-52.6c2.1-8.4 3.5-17.5 3.5-27.4c0-61.9-50.1-112-112-112l-48 0-32 0 0 32 0 32 0 32-32 0L23.7 229.7 0 208l23.7-21.7L192 32l32 0 0 32 0 32 0 32 32 0 80 0c97.2 0 176 78.8 176 176c0 69.2-37.5 115.1-71.8 142.6zm7.7-52.3c18.3-22.5 32.1-52 32.1-90.3c0-79.5-64.5-144-144-144l-112 0-32 0 0-32 0-52.6L47.4 208 192 340.6l0-52.6 0-32 32 0 80 0c77.6 0 140.9 61.4 143.9 138.3z"/></svg>

<svg xmlns="http://www.w3.org/2000/svg" viewBox="0 0 512 512"><!--! Font Awesome Pro 6.4.0 by @fontawesome - https://fontawesome.com License - https://fontawesome.com/license (Commercial License) Copyright 2023 Fonticons, Inc. --><path d="M440.2 446.6C411 469.9 384 480 384 480s20.2-20.2 28.5-52.6c2.1-8.4 3.5-17.5 3.5-27.4c0-61.9-50.1-112-112-112H256 224v32 32 32H192L23.7 229.7 0 208l23.7-21.7L192 32h32V64 96v32h32 80c97.2 0 176 78.8 176 176c0 69.2-37.5 115.1-71.8 142.6zm7.7-52.3c18.3-22.5 32.1-52 32.1-90.3c0-79.5-64.5-144-144-144H224 192V128 75.4L47.4 208 192 340.6V288 256h32 80c77.6 0 140.9 61.4 143.9 138.3z"/></svg>
